Numix/16/status/indicator-keyboard-By-1.svg

<?xml version="1.0" encoding="UTF-8" standalone="no"?>
<svg
   xmlns:dc="http://purl.org/dc/elements/1.1/"
   xmlns:cc="http://creativecommons.org/ns#"
   xmlns:rdf="http://www.w3.org/1999/02/22-rdf-syntax-ns#"
   xmlns:svg="http://www.w3.org/2000/svg"
   xmlns="http://www.w3.org/2000/svg"
   xmlns:sodipodi="http://sodipodi.sourceforge.net/DTD/sodipodi-0.dtd"
   xmlns:inkscape="http://www.inkscape.org/namespaces/inkscape"
   viewBox="0 0 16 16"
   id="svg2"
   version="1.1"
   inkscape:version="0.91 r13725"
   sodipodi:docname="indicator-keyboard-By-1.svg">
  <metadata
     id="metadata14">
    <rdf:RDF>
      <cc:Work
         rdf:about="">
        <dc:format>image/svg+xml</dc:format>
        <dc:type
           rdf:resource="http://purl.org/dc/dcmitype/StillImage" />
      </cc:Work>
    </rdf:RDF>
  </metadata>
  <defs
     id="defs12" />
  <sodipodi:namedview
     pagecolor="#ffffff"
     bordercolor="#666666"
     borderopacity="1"
     objecttolerance="10"
     gridtolerance="10"
     guidetolerance="10"
     inkscape:pageopacity="0"
     inkscape:pageshadow="2"
     inkscape:window-width="640"
     inkscape:window-height="480"
     id="namedview10"
     showgrid="false"
     inkscape:zoom="14.75"
     inkscape:cx="8"
     inkscape:cy="8"
     inkscape:window-x="65"
     inkscape:window-y="24"
     inkscape:window-maximized="0"
     inkscape:current-layer="svg2" />
  <path
     style="fill:#ececec;fill-opacity:1"
     d="M 1.5996094 0 C 0.71320937 2.9605947e-16 0 0.71320937 0 1.5996094 L 0 14.400391 C 2.9605947e-16 15.286791 0.71320937 16 1.5996094 16 L 14.400391 16 C 15.286791 16 16 15.286791 16 14.400391 L 16 1.5996094 C 16 0.71320937 15.286791 0 14.400391 0 L 1.5996094 0 z M 3.9550781 4.8046875 C 4.2910781 4.8046875 4.6082031 4.8327187 4.9082031 4.8867188 C 5.2142031 4.9407188 5.4809844 5.03025 5.7089844 5.15625 C 5.9369844 5.28225 6.118 5.4501562 6.25 5.6601562 C 6.388 5.8641562 6.4570312 6.1197813 6.4570312 6.4257812 C 6.4570312 6.7617813 6.3693125 7.0490625 6.1953125 7.2890625 C 6.0273125 7.5230625 5.7997188 7.6853906 5.5117188 7.7753906 C 5.6917187 7.8173906 5.8578125 7.8770781 6.0078125 7.9550781 C 6.1578125 8.0330781 6.2883437 8.1357187 6.4023438 8.2617188 C 6.5163438 8.3817188 6.6040625 8.5309375 6.6640625 8.7109375 C 6.7300625 8.8849375 6.7636719 9.0957969 6.7636719 9.3417969 C 6.7636719 9.9297971 6.5285469 10.379406 6.0605469 10.691406 C 5.5925469 10.997406 4.8705781 11.150391 3.8925781 11.150391 C 3.7905781 11.150391 3.66925 11.144813 3.53125 11.132812 C 3.39925 11.126813 3.2611875 11.113703 3.1171875 11.095703 C 2.9791875 11.083703 2.8486563 11.068781 2.7226562 11.050781 C 2.5966563 11.026781 2.4884375 11.002516 2.3984375 10.978516 L 2.3984375 4.9765625 C 2.5064375 4.9465625 2.6258125 4.9222969 2.7578125 4.9042969 C 2.8898125 4.8802969 3.0241094 4.8616094 3.1621094 4.8496094 C 3.3061094 4.8316094 3.4441719 4.8204531 3.5761719 4.8144531 C 3.7141719 4.8084531 3.8410781 4.8046875 3.9550781 4.8046875 z M 3.9550781 5.3261719 C 3.7330781 5.3261719 3.5446719 5.3337031 3.3886719 5.3457031 C 3.2386719 5.3577031 3.1117656 5.372625 3.0097656 5.390625 L 3.0097656 7.5859375 L 4.1972656 7.5859375 C 4.4192656 7.5859375 4.630125 7.5710156 4.828125 7.5410156 C 5.026125 7.5050156 5.1977969 7.4453281 5.3417969 7.3613281 C 5.4917969 7.2713281 5.6074062 7.1537656 5.6914062 7.0097656 C 5.7754062 6.8597656 5.8183594 6.6713594 5.8183594 6.4433594 C 5.8183594 6.2393594 5.7735938 6.0676875 5.6835938 5.9296875 C 5.5935937 5.7856875 5.4629219 5.668125 5.2949219 5.578125 C 5.1329219 5.488125 4.9389375 5.426625 4.7109375 5.390625 C 4.4829375 5.348625 4.2310781 5.3261719 3.9550781 5.3261719 z M 7.4453125 6.4433594 L 8.0664062 6.4433594 C 8.1324062 6.7313594 8.2163594 7.0429063 8.3183594 7.3789062 C 8.4203594 7.7089062 8.5341563 8.0502969 8.6601562 8.4042969 C 8.7921562 8.7582969 8.9357969 9.1221406 9.0917969 9.4941406 C 9.2477969 9.8661408 9.4157031 10.231797 9.5957031 10.591797 C 9.7277031 10.219797 9.8452656 9.8690627 9.9472656 9.5390625 C 10.049266 9.2090625 10.142563 8.8825937 10.226562 8.5585938 C 10.316562 8.2285938 10.400516 7.8927812 10.478516 7.5507812 C 10.562516 7.2087813 10.650234 6.8393594 10.740234 6.4433594 L 11.324219 6.4433594 C 11.132219 7.3133594 10.913969 8.1584688 10.667969 8.9804688 C 10.421969 9.8024689 10.155188 10.556234 9.8671875 11.240234 C 9.7531875 11.510234 9.635625 11.741594 9.515625 11.933594 C 9.395625 12.131594 9.2613281 12.293922 9.1113281 12.419922 C 8.9673281 12.545922 8.7956563 12.637266 8.5976562 12.697266 C 8.4056562 12.757266 8.1780625 12.787109 7.9140625 12.787109 C 7.7640625 12.787109 7.626 12.770375 7.5 12.734375 C 7.38 12.698375 7.3053906 12.670344 7.2753906 12.652344 L 7.390625 12.167969 C 7.414625 12.185969 7.4818438 12.208281 7.5898438 12.238281 C 7.7038438 12.274281 7.8214062 12.292969 7.9414062 12.292969 C 8.1094063 12.292969 8.258625 12.274281 8.390625 12.238281 C 8.528625 12.202281 8.6517656 12.140781 8.7597656 12.050781 C 8.8677656 11.966781 8.962875 11.854797 9.046875 11.716797 C 9.136875 11.578797 9.2245938 11.405312 9.3085938 11.195312 C 9.1105937 10.829313 8.9184219 10.448734 8.7324219 10.052734 C 8.5524219 9.6567342 8.38075 9.2574687 8.21875 8.8554688 C 8.06275 8.4474688 7.9191094 8.042625 7.7871094 7.640625 C 7.6551094 7.232625 7.5413125 6.8333594 7.4453125 6.4433594 z M 3.0097656 8.1074219 L 3.0097656 10.564453 C 3.0997656 10.576453 3.2340625 10.591375 3.4140625 10.609375 C 3.5940625 10.621375 3.7768906 10.628906 3.9628906 10.628906 C 4.2388906 10.628906 4.507625 10.610219 4.765625 10.574219 C 5.029625 10.538219 5.2590312 10.472953 5.4570312 10.376953 C 5.6550313 10.280953 5.8155469 10.148469 5.9355469 9.9804688 C 6.0555469 9.8124687 6.1152344 9.5960312 6.1152344 9.3320312 C 6.1152344 9.0920312 6.0722812 8.8942812 5.9882812 8.7382812 C 5.9042813 8.5762813 5.7849062 8.449375 5.6289062 8.359375 C 5.4729063 8.263375 5.2807344 8.1981094 5.0527344 8.1621094 C 4.8307344 8.1261094 4.5826406 8.1074219 4.3066406 8.1074219 L 3.0097656 8.1074219 z M 13.333984 8.8417969 L 13.601562 8.8417969 L 13.601562 12.896484 L 13.222656 12.896484 L 13.222656 9.421875 C 13.179756 9.468675 13.122934 9.5157063 13.052734 9.5664062 C 12.986434 9.6171063 12.910019 9.66805 12.824219 9.71875 C 12.738419 9.76555 12.648288 9.812575 12.554688 9.859375 C 12.461087 9.902275 12.367038 9.9375437 12.273438 9.9648438 L 12.162109 9.671875 C 12.396109 9.5899751 12.605763 9.4880813 12.789062 9.3632812 C 12.972362 9.2345813 13.154584 9.0601969 13.333984 8.8417969 z "
     id="path4" />
</svg>

<svg xmlns="http://www.w3.org/2000/svg" viewBox="0 0 16 16">
 <path d="m 1.6 0 c -0.886 0 -1.6 0.713 -1.6 1.6 l 0 12.801 c 0 0.886 0.713 1.6 1.6 1.6 l 12.801 0 c 0.886 0 1.6 -0.713 1.6 -1.6 l 0 -12.801 c 0 -0.886 -0.713 -1.6 -1.6 -1.6 l -12.801 0 z m 2.355 4.805 c 0.336 0 0.653 0.028 0.953 0.082 c 0.306 0.054 0.573 0.144 0.801 0.27 c 0.228 0.126 0.409 0.294 0.541 0.504 c 0.138 0.204 0.207 0.46 0.207 0.766 c 0 0.336 -0.088 0.623 -0.262 0.863 c -0.168 0.234 -0.396 0.396 -0.684 0.486 c 0.18 0.042 0.346 0.102 0.496 0.18 c 0.15 0.078 0.281 0.181 0.395 0.307 c 0.114 0.12 0.202 0.269 0.262 0.449 c 0.066 0.174 0.1 0.385 0.1 0.631 c 0 0.588 -0.235 1.038 -0.703 1.35 c -0.468 0.306 -1.19 0.459 -2.168 0.459 c -0.102 0 -0.223 -0.006 -0.361 -0.018 c -0.132 -0.006 -0.27 -0.019 -0.414 -0.037 c -0.138 -0.012 -0.269 -0.027 -0.395 -0.045 c -0.126 -0.024 -0.234 -0.048 -0.324 -0.072 l 0 -6 c 0.108 -0.03 0.227 -0.054 0.359 -0.072 c 0.132 -0.024 0.266 -0.043 0.404 -0.055 c 0.144 -0.018 0.282 -0.029 0.414 -0.035 c 0.138 -0.006 0.265 -0.01 0.379 -0.01 z m 0 0.521 c -0.222 0 -0.41 0.008 -0.566 0.02 c -0.15 0.012 -0.277 0.027 -0.379 0.045 l 0 2.195 l 1.187 0 c 0.222 0 0.433 -0.015 0.631 -0.045 c 0.198 -0.036 0.37 -0.096 0.514 -0.18 c 0.15 -0.09 0.266 -0.208 0.35 -0.352 c 0.084 -0.15 0.127 -0.338 0.127 -0.566 c 0 -0.204 -0.045 -0.376 -0.135 -0.514 c -0.09 -0.144 -0.221 -0.262 -0.389 -0.352 c -0.162 -0.09 -0.356 -0.152 -0.584 -0.188 c -0.228 -0.042 -0.48 -0.064 -0.756 -0.064 z m 3.49 1.117 l 0.621 0 c 0.066 0.288 0.15 0.6 0.252 0.936 c 0.102 0.33 0.216 0.671 0.342 1.025 c 0.132 0.354 0.276 0.718 0.432 1.09 c 0.156 0.372 0.324 0.738 0.504 1.098 c 0.132 -0.372 0.25 -0.723 0.352 -1.053 c 0.102 -0.33 0.195 -0.656 0.279 -0.98 c 0.09 -0.33 0.174 -0.666 0.252 -1.01 c 0.084 -0.342 0.172 -0.711 0.262 -1.107 l 0.584 0 c -0.192 0.87 -0.41 1.715 -0.656 2.537 c -0.246 0.822 -0.513 1.576 -0.801 2.26 c -0.114 0.27 -0.232 0.501 -0.352 0.693 c -0.12 0.198 -0.254 0.36 -0.404 0.486 c -0.144 0.126 -0.316 0.217 -0.514 0.277 c -0.192 0.06 -0.42 0.09 -0.684 0.09 c -0.15 0 -0.288 -0.017 -0.414 -0.053 c -0.12 -0.036 -0.195 -0.064 -0.225 -0.082 l 0.115 -0.484 c 0.024 0.018 0.091 0.04 0.199 0.07 c 0.114 0.036 0.232 0.055 0.352 0.055 c 0.168 0 0.317 -0.019 0.449 -0.055 c 0.138 -0.036 0.261 -0.098 0.369 -0.188 c 0.108 -0.084 0.203 -0.196 0.287 -0.334 c 0.09 -0.138 0.178 -0.311 0.262 -0.521 c -0.198 -0.366 -0.39 -0.747 -0.576 -1.143 c -0.18 -0.396 -0.352 -0.795 -0.514 -1.197 c -0.156 -0.408 -0.3 -0.813 -0.432 -1.215 c -0.132 -0.408 -0.246 -0.807 -0.342 -1.197 z m -4.436 1.664 l 0 2.457 c 0.09 0.012 0.224 0.027 0.404 0.045 c 0.18 0.012 0.363 0.02 0.549 0.02 c 0.276 0 0.545 -0.019 0.803 -0.055 c 0.264 -0.036 0.493 -0.101 0.691 -0.197 c 0.198 -0.096 0.359 -0.228 0.479 -0.396 c 0.12 -0.168 0.18 -0.384 0.18 -0.648 c 0 -0.24 -0.043 -0.438 -0.127 -0.594 c -0.084 -0.162 -0.203 -0.289 -0.359 -0.379 c -0.156 -0.096 -0.348 -0.161 -0.576 -0.197 c -0.222 -0.036 -0.47 -0.055 -0.746 -0.055 l -1.297 0 z m 10.324 0.734 l 0.268 0 l 0 4.055 l -0.379 0 l 0 -3.475 c -0.043 0.047 -0.1 0.094 -0.17 0.145 c -0.066 0.051 -0.143 0.102 -0.229 0.152 c -0.086 0.047 -0.176 0.094 -0.27 0.141 c -0.094 0.043 -0.188 0.078 -0.281 0.105 l -0.111 -0.293 c 0.234 -0.082 0.444 -0.184 0.627 -0.309 c 0.183 -0.129 0.366 -0.303 0.545 -0.521 z" style="fill:#ececec;fill-opacity:1"/>
</svg>
